!!!SOCIAL_FUNCTION:	songs of the hand-game
!!!PDT:	1936
!!!OTL: No_37_Cheyenne_Hand-Game_Song_(a).krn
!!!REG: Oklahoma and Montana
!!!LANG: Tone
!!!LING_GROUP: Algonquin
**kern
*staff1
=1-
=
*clefF4
*k[f#c#g#]
*M2/4
4f#\
8gn\L
8f#\J
=2
4f#\
4f#\
=3
8f#\L
8e\J
8e\L
8c#\J
=4
4c#\
8c#\
8r
=5
4c#\
8f#\L
8c#\J
=6
4c#\
4c#\
=7
8c#\L
8A\J
8A\L
8F#\J
=8
4F#\
8F#\
8r
=9
4F#\
8A\L
8F#\J
=10
4F#\
4F#\
=11
8F#\L
8E\J
8E/L
8C#/J
=12
4C#/
8C#/
8r
=13
4F#\
8A\L
8F#\J
=14
4F#\
4F#\
=15
*M3/4
8F#\L
8E\J
8E/L
8C#/J
8C#/L
8D/J
=16
*M2/4
4.C#/
8C#/
=17
4C#/
8C#/
8r
==:|!
*-
